apps/scalable/incubator-netbeans.svg

<?xml version="1.0" encoding="UTF-8" standalone="no"?>
<svg
   width="128"
   height="128"
   viewBox="0 0 128 128"
   fill="none"
   version="1.1"
   id="svg53"
   sodipodi:docname="org.apache.netbeans-beta.svg"
   inkscape:version="1.3 (0e150ed6c4, 2023-07-21)"
   xmlns:inkscape="http://www.inkscape.org/namespaces/inkscape"
   xmlns:sodipodi="http://sodipodi.sourceforge.net/DTD/sodipodi-0.dtd"
   xmlns="http://www.w3.org/2000/svg"
   xmlns:svg="http://www.w3.org/2000/svg">
  <sodipodi:namedview
     id="namedview53"
     pagecolor="#ffffff"
     bordercolor="#000000"
     borderopacity="0.25"
     inkscape:showpageshadow="2"
     inkscape:pageopacity="0.0"
     inkscape:pagecheckerboard="0"
     inkscape:deskcolor="#d1d1d1"
     inkscape:zoom="3.1445313"
     inkscape:cx="92.064596"
     inkscape:cy="52.313043"
     inkscape:window-width="1550"
     inkscape:window-height="1005"
     inkscape:window-x="184"
     inkscape:window-y="36"
     inkscape:window-maximized="1"
     inkscape:current-layer="svg53" />
  <path
     opacity="0.4"
     d="M12 41.8891C12 36.9872 14.7573 32.5021 19.1313 30.2892L57.3682 10.9441C61.0302 9.09141 65.3521 9.07674 69.0267 10.9045L108.04 30.3106C112.457 32.5079 115.25 37.0164 115.25 41.9501V89.5163C115.25 94.7697 112.088 99.5067 107.237 101.522L67.8224 117.893C64.5796 119.24 60.9298 119.218 57.7036 117.832L19.8678 101.574C15.0939 99.5228 12 94.826 12 89.63V41.8891Z"
     fill="url(#paint0_linear_54_969)"
     id="path1" />
  <path
     d="m 58.0867,21.5154 c 2.1963,-1.1133 4.741,-1.4997 7.1906,-1.1286 -1.5574,1.937 -3.1888,3.8943 -3.9226,6.2837 -10.1259,4.8906 -27.84703,12.105106 -28.685377,13.363552 -0.310671,0.466349 -0.531023,1.806648 0.07078,2.091348 0.675856,0.637285 3.5637,1.7082 5.3534,2.5623 -1.7528,1.2404 -3.0779,2.9334 -3.8962,4.8652 -3.065092,-1.829744 -6.440104,-1.397921 -6.677332,0.975763 -0.898304,8.988373 -0.460468,13.757237 -0.481568,22.826937 -2.4497,3.1824 -6.008,6.1565 -6.1453,10.4015 C 20.608,71.205 20.8509,58.6276 20.7717,46.0654 20.6661,42.1711 23.0418,38.3786 26.6424,36.6145 37.1062,31.551 47.607,26.5535 58.0867,21.5154 Z"
     fill="url(#paint1_linear_54_969)"
     id="path2"
     sodipodi:nodetypes="cccscccsccccc" />
  <path
     d="M65.2773 20.3868C68.577 21.0833 71.4015 22.9796 74.4531 24.2963L74.4478 24.3065C73.112 25.8723 71.9453 27.5652 71.0267 29.3852C67.9118 28.2668 64.8761 25.2571 61.3547 26.6705C62.0885 24.2811 63.7199 22.3238 65.2773 20.3868Z"
     fill="url(#paint2_linear_54_969)"
     id="path3" />
  <path
     d="M71.0267 29.3852C71.9453 27.5652 73.112 25.8723 74.4478 24.3065C77.2987 25.6435 80.1337 27.0213 82.9793 28.3837C81.7017 29.9953 80.5455 31.6883 79.5265 33.4625C76.6915 32.1 73.8565 30.7426 71.0267 29.3852Z"
     fill="url(#paint3_linear_54_969)"
     id="path4" />
  <path
     d="M82.9793 28.3837C86.1998 29.9292 89.4255 31.4696 92.646 33.0202C91.5059 34.7182 90.339 36.406 89.1509 38.0736C85.9411 36.5382 82.7364 34.9978 79.5265 33.4625C80.5455 31.6883 81.7017 29.9953 82.9793 28.3837Z"
     fill="url(#paint4_linear_54_969)"
     id="path5" />
  <path
     d="m 92.646,33.0202 c 3.437,1.8861 7.455,2.969 10.332,5.6787 -2.313,2.7758 -4.8996,5.4601 -6.2246,8.8408 -6.0716,2.9182 -12.148,5.821 -18.2194,8.7341 0.1636,-1.1185 0.3959,-2.2776 1.1931,-3.152 1.6208,-1.9471 3.1941,-3.9502 4.3081,-6.2175 3.495,-1.6727 4.561583,-2.336951 8.056483,-3.999451 0.4226,-0.2033 1.608636,-0.6074 1.403871,-1.908016 C 93.309741,39.816592 91.358,39.1412 89.1509,38.0736 90.339,36.406 91.5059,34.7182 92.646,33.0202 Z"
     fill="url(#paint5_linear_54_969)"
     id="path6"
     sodipodi:nodetypes="cccccccscc" />
  <path
     d="m 96.7534,47.5397 c 1.325,-3.3807 3.9116,-6.065 6.2246,-8.8408 0.702,0.7473 1.346,1.5556 1.832,2.4555 1.642,3.0503 1.066,6.548 1.156,9.8423 -2.312,2.3182 -4.039,5.089 -6.288,7.458 0.016,-4.1078 0.279015,-5.750203 -0.526969,-9.964751 C 98.94626,47.419189 97.7297,47.0669 96.7534,47.5397 Z"
     fill="url(#paint6_linear_54_969)"
     id="path7"
     sodipodi:nodetypes="cccccsc" />
  <path
     d="M34.1973 49.5529C35.0156 47.6211 36.3407 45.9281 38.0935 44.6877C40.9973 46.0807 43.9009 47.4737 46.8046 48.8666C45.6009 50.5341 44.4288 52.2169 43.241 53.8945C40.2264 52.4456 37.2118 50.9967 34.1973 49.5529Z"
     fill="url(#paint7_linear_54_969)"
     id="path8" />
  <path
     d="M64.6648 56.1975C71.1216 53.0964 77.5784 50.0003 84.0352 46.9043C82.9212 49.1716 81.3479 51.1747 79.7271 53.1218C78.9299 53.9962 78.6976 55.1553 78.534 56.2738C74.5375 58.2209 70.5039 60.0867 66.5232 62.0643C66.5127 65.1655 66.5285 68.2666 66.518 71.3728C64.1158 73.6148 62.3947 76.3957 60.2407 78.841C60.246 73.6352 60.2196 68.4242 60.2513 63.2183C60.2619 62.9387 60.2777 62.3795 60.2829 62.0999C62.0727 60.3764 63.4612 58.3277 64.6648 56.1975Z"
     fill="url(#paint8_linear_54_969)"
     id="path9" />
  <path
     d="M46.8046 48.8666C49.5921 50.2087 52.3849 51.5407 55.1724 52.8778C53.8473 54.4639 52.6489 56.1416 51.5402 57.8701C48.7738 56.5432 46.0074 55.2163 43.241 53.8945C44.4288 52.2169 45.6009 50.5341 46.8046 48.8666Z"
     fill="url(#paint9_linear_54_969)"
     id="path10" />
  <path
     d="M99.678 58.4547C101.927 56.0857 103.654 53.3149 105.966 50.9967C105.966 55.923 105.976 60.8492 105.966 65.7704C103.701 68.1294 101.97 70.9 99.6838 73.2386C99.6729 68.3124 99.678 63.381 99.678 58.4547Z"
     fill="url(#paint10_linear_54_969)"
     id="path11" />
  <path
     d="M51.5402 57.8701C52.6489 56.1416 53.8473 54.4639 55.1724 52.8778C57.9019 54.1844 60.6314 55.5061 63.3662 56.8076C63.6935 56.6551 64.3427 56.35 64.6648 56.1975C63.4612 58.3277 62.0727 60.3764 60.2829 62.0999C57.4004 60.6306 54.4492 59.2885 51.5402 57.8701Z"
     fill="url(#paint11_linear_54_969)"
     id="path12" />
  <path
     d="M99.6838 73.2386C101.97 70.9 103.701 68.1294 105.966 65.7704C105.966 71.2508 105.976 76.7312 105.966 82.2167C105.971 86.0753 103.522 89.7611 99.9316 91.4538C92.2814 95.1553 84.6001 98.8054 76.9396 102.491C78.3756 98.7851 81.6488 96.1614 83.4333 92.6338C87.9578 90.4525 92.4981 88.297 97.0172 86.1059C98.5429 85.4093 99.641 83.8791 99.6678 82.237C99.7048 79.2376 99.662 76.2381 99.6838 73.2386Z"
     fill="url(#paint12_linear_54_969)"
     id="path13" />
  <path
     d="m 60.2407,78.841 c 2.154,-2.4453 3.8751,-5.2262 6.2773,-7.4682 0,9.2832 0.0053,18.5714 0,27.8595 -2.6186,2.3137 -4.4242,5.2827 -6.499,8.0267 -3.7589,-1.484 -7.3067,-3.441 -10.9759,-5.119 1.1826,-1.672 2.3388,-3.365 3.4474,-5.0886 2.5817,1.2351 7.415706,3.83504 7.666056,0.989049 C 60.674893,92.147969 60.2302,86.1465 60.2407,78.841 Z"
     fill="url(#paint13_linear_54_969)"
     id="path14"
     sodipodi:nodetypes="ccccccsc" />
  <path
     d="M20.8931 83.7571C21.0304 79.5121 24.5887 76.538 27.0384 73.3556C27.0595 76.3348 27.0119 79.3138 27.0595 82.2929C27.0595 83.1013 27.4132 83.8486 27.8091 84.54C28.469 85.4297 29.4246 86.0347 30.4436 86.4871C29.1501 88.0936 27.9517 89.7612 26.8219 91.4792C26.3362 91.2205 25.8557 90.9508 25.3806 90.6761C23.0101 89.0596 21.3577 86.5227 20.8931 83.7571Z"
     fill="url(#paint14_linear_54_969)"
     id="path15" />
  <path
     d="M30.4436 86.4871C34.2817 88.3122 38.1094 90.1577 41.9422 91.9931C40.8177 93.7065 39.6562 95.3938 38.4684 97.0717C34.588 95.2112 30.7023 93.3506 26.8219 91.4792C27.9517 89.7612 29.1501 88.0936 30.4436 86.4871Z"
     fill="url(#paint15_linear_54_969)"
     id="path16" />
  <path
     d="M41.9422 91.9931C45.4584 93.676 48.9745 95.3634 52.4905 97.0514C51.3819 98.775 50.2257 100.468 49.0431 102.14C45.5164 100.457 41.9951 98.7598 38.4684 97.0717C39.6562 95.3938 40.8177 93.7065 41.9422 91.9931Z"
     fill="url(#paint16_linear_54_969)"
     id="path17" />
  <path
     d="M 71.317793,98.344934 C 76.686993,95.777434 78.0589,95.201 83.4333,92.6338 c -1.7845,3.5276 -5.0577,6.1513 -6.4937,9.8572 -2.9354,1.398 -5.855,2.827 -8.8008,4.205 -2.5078,1.164 -5.4589,1.382 -8.1198,0.563 2.0748,-2.744 3.752991,-11.289485 6.371591,-13.603185 0.252955,0.676608 -0.143361,1.667793 0.899223,4.491985 0.604021,1.636194 3.827379,0.298134 4.027979,0.197134 z"
     fill="url(#paint17_linear_54_969)"
     id="path18"
     sodipodi:nodetypes="ccccccsc" />
  <defs
     id="defs53">
    <linearGradient
       id="paint0_linear_54_969"
       x1="63.625"
       y1="8"
       x2="63.625"
       y2="120"
       gradientUnits="userSpaceOnUse">
      <stop
         stop-color="#DC18FC"
         id="stop18" />
      <stop
         offset="1"
         stop-color="#8E1EFF"
         id="stop19" />
    </linearGradient>
    <linearGradient
       id="paint1_linear_54_969"
       x1="63.3719"
       y1="20.25"
       x2="63.3719"
       y2="107.75"
       gradientUnits="userSpaceOnUse">
      <stop
         stop-color="#DC18FC"
         id="stop20" />
      <stop
         offset="1"
         stop-color="#8E1EFF"
         id="stop21" />
    </linearGradient>
    <linearGradient
       id="paint2_linear_54_969"
       x1="63.3719"
       y1="20.25"
       x2="63.3719"
       y2="107.75"
       gradientUnits="userSpaceOnUse">
      <stop
         stop-color="#DC18FC"
         id="stop22" />
      <stop
         offset="1"
         stop-color="#8E1EFF"
         id="stop23" />
    </linearGradient>
    <linearGradient
       id="paint3_linear_54_969"
       x1="63.3719"
       y1="20.25"
       x2="63.3719"
       y2="107.75"
       gradientUnits="userSpaceOnUse">
      <stop
         stop-color="#DC18FC"
         id="stop24" />
      <stop
         offset="1"
         stop-color="#8E1EFF"
         id="stop25" />
    </linearGradient>
    <linearGradient
       id="paint4_linear_54_969"
       x1="63.3719"
       y1="20.25"
       x2="63.3719"
       y2="107.75"
       gradientUnits="userSpaceOnUse">
      <stop
         stop-color="#DC18FC"
         id="stop26" />
      <stop
         offset="1"
         stop-color="#8E1EFF"
         id="stop27" />
    </linearGradient>
    <linearGradient
       id="paint5_linear_54_969"
       x1="63.3719"
       y1="20.25"
       x2="63.3719"
       y2="107.75"
       gradientUnits="userSpaceOnUse">
      <stop
         stop-color="#DC18FC"
         id="stop28" />
      <stop
         offset="1"
         stop-color="#8E1EFF"
         id="stop29" />
    </linearGradient>
    <linearGradient
       id="paint6_linear_54_969"
       x1="63.3719"
       y1="20.25"
       x2="63.3719"
       y2="107.75"
       gradientUnits="userSpaceOnUse">
      <stop
         stop-color="#DC18FC"
         id="stop30" />
      <stop
         offset="1"
         stop-color="#8E1EFF"
         id="stop31" />
    </linearGradient>
    <linearGradient
       id="paint7_linear_54_969"
       x1="63.3719"
       y1="20.25"
       x2="63.3719"
       y2="107.75"
       gradientUnits="userSpaceOnUse">
      <stop
         stop-color="#DC18FC"
         id="stop32" />
      <stop
         offset="1"
         stop-color="#8E1EFF"
         id="stop33" />
    </linearGradient>
    <linearGradient
       id="paint8_linear_54_969"
       x1="63.3719"
       y1="20.25"
       x2="63.3719"
       y2="107.75"
       gradientUnits="userSpaceOnUse">
      <stop
         stop-color="#DC18FC"
         id="stop34" />
      <stop
         offset="1"
         stop-color="#8E1EFF"
         id="stop35" />
    </linearGradient>
    <linearGradient
       id="paint9_linear_54_969"
       x1="63.3719"
       y1="20.25"
       x2="63.3719"
       y2="107.75"
       gradientUnits="userSpaceOnUse">
      <stop
         stop-color="#DC18FC"
         id="stop36" />
      <stop
         offset="1"
         stop-color="#8E1EFF"
         id="stop37" />
    </linearGradient>
    <linearGradient
       id="paint10_linear_54_969"
       x1="63.3719"
       y1="20.25"
       x2="63.3719"
       y2="107.75"
       gradientUnits="userSpaceOnUse">
      <stop
         stop-color="#DC18FC"
         id="stop38" />
      <stop
         offset="1"
         stop-color="#8E1EFF"
         id="stop39" />
    </linearGradient>
    <linearGradient
       id="paint11_linear_54_969"
       x1="63.3719"
       y1="20.25"
       x2="63.3719"
       y2="107.75"
       gradientUnits="userSpaceOnUse">
      <stop
         stop-color="#DC18FC"
         id="stop40" />
      <stop
         offset="1"
         stop-color="#8E1EFF"
         id="stop41" />
    </linearGradient>
    <linearGradient
       id="paint12_linear_54_969"
       x1="63.3719"
       y1="20.25"
       x2="63.3719"
       y2="107.75"
       gradientUnits="userSpaceOnUse">
      <stop
         stop-color="#DC18FC"
         id="stop42" />
      <stop
         offset="1"
         stop-color="#8E1EFF"
         id="stop43" />
    </linearGradient>
    <linearGradient
       id="paint13_linear_54_969"
       x1="63.3719"
       y1="20.25"
       x2="63.3719"
       y2="107.75"
       gradientUnits="userSpaceOnUse">
      <stop
         stop-color="#DC18FC"
         id="stop44" />
      <stop
         offset="1"
         stop-color="#8E1EFF"
         id="stop45" />
    </linearGradient>
    <linearGradient
       id="paint14_linear_54_969"
       x1="63.3719"
       y1="20.25"
       x2="63.3719"
       y2="107.75"
       gradientUnits="userSpaceOnUse">
      <stop
         stop-color="#DC18FC"
         id="stop46" />
      <stop
         offset="1"
         stop-color="#8E1EFF"
         id="stop47" />
    </linearGradient>
    <linearGradient
       id="paint15_linear_54_969"
       x1="63.3719"
       y1="20.25"
       x2="63.3719"
       y2="107.75"
       gradientUnits="userSpaceOnUse">
      <stop
         stop-color="#DC18FC"
         id="stop48" />
      <stop
         offset="1"
         stop-color="#8E1EFF"
         id="stop49" />
    </linearGradient>
    <linearGradient
       id="paint16_linear_54_969"
       x1="63.3719"
       y1="20.25"
       x2="63.3719"
       y2="107.75"
       gradientUnits="userSpaceOnUse">
      <stop
         stop-color="#DC18FC"
         id="stop50" />
      <stop
         offset="1"
         stop-color="#8E1EFF"
         id="stop51" />
    </linearGradient>
    <linearGradient
       id="paint17_linear_54_969"
       x1="63.3719"
       y1="20.25"
       x2="63.3719"
       y2="107.75"
       gradientUnits="userSpaceOnUse">
      <stop
         stop-color="#DC18FC"
         id="stop52" />
      <stop
         offset="1"
         stop-color="#8E1EFF"
         id="stop53" />
    </linearGradient>
  </defs>
</svg>

<svg width="128" height="128" viewBox="0 0 128 128" fill="none" xmlns="http://www.w3.org/2000/svg">
<path opacity="0.4" d="M12 41.8891C12 36.9872 14.7573 32.5021 19.1313 30.2892L57.3682 10.9441C61.0302 9.09141 65.3521 9.07674 69.0267 10.9045L108.04 30.3106C112.457 32.5079 115.25 37.0164 115.25 41.9501V89.5163C115.25 94.7697 112.088 99.5067 107.237 101.522L67.8224 117.893C64.5796 119.24 60.9298 119.218 57.7036 117.832L19.8678 101.574C15.0939 99.5228 12 94.826 12 89.63V41.8891Z" fill="url(#paint0_linear_54_969)"/>
<path d="M58.0867 21.5154C60.283 20.4021 62.8277 20.0157 65.2773 20.3868C63.7199 22.3238 62.0885 24.2811 61.3547 26.6705C51.2288 31.5611 41.0764 36.401 30.9399 41.2662C31.5418 41.5509 32.1383 41.8407 32.7401 42.1254C34.5246 42.9744 36.3038 43.8336 38.0935 44.6877C36.3407 45.9281 35.0156 47.6211 34.1973 49.5529C31.8215 48.4141 29.4458 47.2703 27.0648 46.1416C27.0119 55.2113 27.0595 64.2859 27.0384 73.3556C24.5887 76.538 21.0304 79.5121 20.8931 83.7571C20.608 71.205 20.8509 58.6276 20.7717 46.0654C20.6661 42.1711 23.0418 38.3786 26.6424 36.6145C37.1062 31.551 47.607 26.5535 58.0867 21.5154Z" fill="url(#paint1_linear_54_969)"/>
<path d="M65.2773 20.3868C68.577 21.0833 71.4015 22.9796 74.4531 24.2963L74.4478 24.3065C73.112 25.8723 71.9453 27.5652 71.0267 29.3852C67.9118 28.2668 64.8761 25.2571 61.3547 26.6705C62.0885 24.2811 63.7199 22.3238 65.2773 20.3868Z" fill="url(#paint2_linear_54_969)"/>
<path d="M71.0267 29.3852C71.9453 27.5652 73.112 25.8723 74.4478 24.3065C77.2987 25.6435 80.1337 27.0213 82.9793 28.3837C81.7017 29.9953 80.5455 31.6883 79.5265 33.4625C76.6915 32.1 73.8565 30.7426 71.0267 29.3852Z" fill="url(#paint3_linear_54_969)"/>
<path d="M82.9793 28.3837C86.1998 29.9292 89.4255 31.4696 92.646 33.0202C91.5059 34.7182 90.339 36.406 89.1509 38.0736C85.9411 36.5382 82.7364 34.9978 79.5265 33.4625C80.5455 31.6883 81.7017 29.9953 82.9793 28.3837Z" fill="url(#paint4_linear_54_969)"/>
<path d="M92.646 33.0202C96.083 34.9063 100.101 35.9892 102.978 38.6989C100.665 41.4747 98.0784 44.159 96.7534 47.5397C90.6818 50.4579 84.6054 53.3607 78.534 56.2738C78.6976 55.1553 78.9299 53.9962 79.7271 53.1218C81.3479 51.1747 82.9212 49.1716 84.0352 46.9043C87.5302 45.2316 91.0196 43.5489 94.5145 41.8864C94.9371 41.6831 95.3596 41.4747 95.7873 41.2662C93.5803 40.1885 91.358 39.1412 89.1509 38.0736C90.339 36.406 91.5059 34.7182 92.646 33.0202Z" fill="url(#paint5_linear_54_969)"/>
<path d="M96.7534 47.5397C98.0784 44.159 100.665 41.4747 102.978 38.6989C103.68 39.4462 104.324 40.2545 104.81 41.1544C106.452 44.2047 105.876 47.7024 105.966 50.9967C103.654 53.3149 101.927 56.0857 99.678 58.4547C99.694 54.3469 99.6468 50.2443 99.699 46.1365C98.7119 46.5992 97.7297 47.0669 96.7534 47.5397Z" fill="url(#paint6_linear_54_969)"/>
<path d="M34.1973 49.5529C35.0156 47.6211 36.3407 45.9281 38.0935 44.6877C40.9973 46.0807 43.9009 47.4737 46.8046 48.8666C45.6009 50.5341 44.4288 52.2169 43.241 53.8945C40.2264 52.4456 37.2118 50.9967 34.1973 49.5529Z" fill="url(#paint7_linear_54_969)"/>
<path d="M64.6648 56.1975C71.1216 53.0964 77.5784 50.0003 84.0352 46.9043C82.9212 49.1716 81.3479 51.1747 79.7271 53.1218C78.9299 53.9962 78.6976 55.1553 78.534 56.2738C74.5375 58.2209 70.5039 60.0867 66.5232 62.0643C66.5127 65.1655 66.5285 68.2666 66.518 71.3728C64.1158 73.6148 62.3947 76.3957 60.2407 78.841C60.246 73.6352 60.2196 68.4242 60.2513 63.2183C60.2619 62.9387 60.2777 62.3795 60.2829 62.0999C62.0727 60.3764 63.4612 58.3277 64.6648 56.1975Z" fill="url(#paint8_linear_54_969)"/>
<path d="M46.8046 48.8666C49.5921 50.2087 52.3849 51.5407 55.1724 52.8778C53.8473 54.4639 52.6489 56.1416 51.5402 57.8701C48.7738 56.5432 46.0074 55.2163 43.241 53.8945C44.4288 52.2169 45.6009 50.5341 46.8046 48.8666Z" fill="url(#paint9_linear_54_969)"/>
<path d="M99.678 58.4547C101.927 56.0857 103.654 53.3149 105.966 50.9967C105.966 55.923 105.976 60.8492 105.966 65.7704C103.701 68.1294 101.97 70.9 99.6838 73.2386C99.6729 68.3124 99.678 63.381 99.678 58.4547Z" fill="url(#paint10_linear_54_969)"/>
<path d="M51.5402 57.8701C52.6489 56.1416 53.8473 54.4639 55.1724 52.8778C57.9019 54.1844 60.6314 55.5061 63.3662 56.8076C63.6935 56.6551 64.3427 56.35 64.6648 56.1975C63.4612 58.3277 62.0727 60.3764 60.2829 62.0999C57.4004 60.6306 54.4492 59.2885 51.5402 57.8701Z" fill="url(#paint11_linear_54_969)"/>
<path d="M99.6838 73.2386C101.97 70.9 103.701 68.1294 105.966 65.7704C105.966 71.2508 105.976 76.7312 105.966 82.2167C105.971 86.0753 103.522 89.7611 99.9316 91.4538C92.2814 95.1553 84.6001 98.8054 76.9396 102.491C78.3756 98.7851 81.6488 96.1614 83.4333 92.6338C87.9578 90.4525 92.4981 88.297 97.0172 86.1059C98.5429 85.4093 99.641 83.8791 99.6678 82.237C99.7048 79.2376 99.662 76.2381 99.6838 73.2386Z" fill="url(#paint12_linear_54_969)"/>
<path d="M60.2407 78.841C62.3947 76.3957 64.1158 73.6148 66.518 71.3728C66.518 80.656 66.5233 89.9442 66.518 99.2323C63.8994 101.546 62.0938 104.515 60.019 107.259C56.2601 105.775 52.7123 103.818 49.0431 102.14C50.2257 100.468 51.3819 98.775 52.4905 97.0514C55.0722 98.2865 57.6538 99.5273 60.2302 100.762C60.2513 93.4572 60.2302 86.1465 60.2407 78.841Z" fill="url(#paint13_linear_54_969)"/>
<path d="M20.8931 83.7571C21.0304 79.5121 24.5887 76.538 27.0384 73.3556C27.0595 76.3348 27.0119 79.3138 27.0595 82.2929C27.0595 83.1013 27.4132 83.8486 27.8091 84.54C28.469 85.4297 29.4246 86.0347 30.4436 86.4871C29.1501 88.0936 27.9517 89.7612 26.8219 91.4792C26.3362 91.2205 25.8557 90.9508 25.3806 90.6761C23.0101 89.0596 21.3577 86.5227 20.8931 83.7571Z" fill="url(#paint14_linear_54_969)"/>
<path d="M30.4436 86.4871C34.2817 88.3122 38.1094 90.1577 41.9422 91.9931C40.8177 93.7065 39.6562 95.3938 38.4684 97.0717C34.588 95.2112 30.7023 93.3506 26.8219 91.4792C27.9517 89.7612 29.1501 88.0936 30.4436 86.4871Z" fill="url(#paint15_linear_54_969)"/>
<path d="M41.9422 91.9931C45.4584 93.676 48.9745 95.3634 52.4905 97.0514C51.3819 98.775 50.2257 100.468 49.0431 102.14C45.5164 100.457 41.9951 98.7598 38.4684 97.0717C39.6562 95.3938 40.8177 93.7065 41.9422 91.9931Z" fill="url(#paint16_linear_54_969)"/>
<path d="M67.3257 100.351C72.6949 97.7835 78.0589 95.201 83.4333 92.6338C81.6488 96.1614 78.3756 98.7851 76.9396 102.491C74.0042 103.889 71.0846 105.318 68.1388 106.696C65.631 107.86 62.6799 108.078 60.019 107.259C62.0938 104.515 63.8994 101.546 66.518 99.2323C66.518 99.6136 66.5232 100.371 66.5232 100.752C66.7238 100.651 67.1251 100.452 67.3257 100.351Z" fill="url(#paint17_linear_54_969)"/>
<defs>
<linearGradient id="paint0_linear_54_969" x1="63.625" y1="8" x2="63.625" y2="120" gradientUnits="userSpaceOnUse">
<stop stop-color="#DC18FC"/>
<stop offset="1" stop-color="#8E1EFF"/>
</linearGradient>
<linearGradient id="paint1_linear_54_969" x1="63.3719" y1="20.25" x2="63.3719" y2="107.75" gradientUnits="userSpaceOnUse">
<stop stop-color="#DC18FC"/>
<stop offset="1" stop-color="#8E1EFF"/>
</linearGradient>
<linearGradient id="paint2_linear_54_969" x1="63.3719" y1="20.25" x2="63.3719" y2="107.75" gradientUnits="userSpaceOnUse">
<stop stop-color="#DC18FC"/>
<stop offset="1" stop-color="#8E1EFF"/>
</linearGradient>
<linearGradient id="paint3_linear_54_969" x1="63.3719" y1="20.25" x2="63.3719" y2="107.75" gradientUnits="userSpaceOnUse">
<stop stop-color="#DC18FC"/>
<stop offset="1" stop-color="#8E1EFF"/>
</linearGradient>
<linearGradient id="paint4_linear_54_969" x1="63.3719" y1="20.25" x2="63.3719" y2="107.75" gradientUnits="userSpaceOnUse">
<stop stop-color="#DC18FC"/>
<stop offset="1" stop-color="#8E1EFF"/>
</linearGradient>
<linearGradient id="paint5_linear_54_969" x1="63.3719" y1="20.25" x2="63.3719" y2="107.75" gradientUnits="userSpaceOnUse">
<stop stop-color="#DC18FC"/>
<stop offset="1" stop-color="#8E1EFF"/>
</linearGradient>
<linearGradient id="paint6_linear_54_969" x1="63.3719" y1="20.25" x2="63.3719" y2="107.75" gradientUnits="userSpaceOnUse">
<stop stop-color="#DC18FC"/>
<stop offset="1" stop-color="#8E1EFF"/>
</linearGradient>
<linearGradient id="paint7_linear_54_969" x1="63.3719" y1="20.25" x2="63.3719" y2="107.75" gradientUnits="userSpaceOnUse">
<stop stop-color="#DC18FC"/>
<stop offset="1" stop-color="#8E1EFF"/>
</linearGradient>
<linearGradient id="paint8_linear_54_969" x1="63.3719" y1="20.25" x2="63.3719" y2="107.75" gradientUnits="userSpaceOnUse">
<stop stop-color="#DC18FC"/>
<stop offset="1" stop-color="#8E1EFF"/>
</linearGradient>
<linearGradient id="paint9_linear_54_969" x1="63.3719" y1="20.25" x2="63.3719" y2="107.75" gradientUnits="userSpaceOnUse">
<stop stop-color="#DC18FC"/>
<stop offset="1" stop-color="#8E1EFF"/>
</linearGradient>
<linearGradient id="paint10_linear_54_969" x1="63.3719" y1="20.25" x2="63.3719" y2="107.75" gradientUnits="userSpaceOnUse">
<stop stop-color="#DC18FC"/>
<stop offset="1" stop-color="#8E1EFF"/>
</linearGradient>
<linearGradient id="paint11_linear_54_969" x1="63.3719" y1="20.25" x2="63.3719" y2="107.75" gradientUnits="userSpaceOnUse">
<stop stop-color="#DC18FC"/>
<stop offset="1" stop-color="#8E1EFF"/>
</linearGradient>
<linearGradient id="paint12_linear_54_969" x1="63.3719" y1="20.25" x2="63.3719" y2="107.75" gradientUnits="userSpaceOnUse">
<stop stop-color="#DC18FC"/>
<stop offset="1" stop-color="#8E1EFF"/>
</linearGradient>
<linearGradient id="paint13_linear_54_969" x1="63.3719" y1="20.25" x2="63.3719" y2="107.75" gradientUnits="userSpaceOnUse">
<stop stop-color="#DC18FC"/>
<stop offset="1" stop-color="#8E1EFF"/>
</linearGradient>
<linearGradient id="paint14_linear_54_969" x1="63.3719" y1="20.25" x2="63.3719" y2="107.75" gradientUnits="userSpaceOnUse">
<stop stop-color="#DC18FC"/>
<stop offset="1" stop-color="#8E1EFF"/>
</linearGradient>
<linearGradient id="paint15_linear_54_969" x1="63.3719" y1="20.25" x2="63.3719" y2="107.75" gradientUnits="userSpaceOnUse">
<stop stop-color="#DC18FC"/>
<stop offset="1" stop-color="#8E1EFF"/>
</linearGradient>
<linearGradient id="paint16_linear_54_969" x1="63.3719" y1="20.25" x2="63.3719" y2="107.75" gradientUnits="userSpaceOnUse">
<stop stop-color="#DC18FC"/>
<stop offset="1" stop-color="#8E1EFF"/>
</linearGradient>
<linearGradient id="paint17_linear_54_969" x1="63.3719" y1="20.25" x2="63.3719" y2="107.75" gradientUnits="userSpaceOnUse">
<stop stop-color="#DC18FC"/>
<stop offset="1" stop-color="#8E1EFF"/>
</linearGradient>
</defs>
</svg>
